X:177
T:Planxty Irwin
R:Air
C:O'Carolan
M:6/8
L:1/8
K:G
d |: g2f e>fg | d2c B>AG | c2A B>cd | F2G A2d|
  | g2f e>fg | d2c B>AG | c2A B>cd | G2 F G2 d:|
  |: g>ag g>fg | a>ba a>fd | b2 b a>bg | f2e d>ef|
  | g2f e>fg | d2c B>AG | c2A B>cd | G2 F G2 d :|
